assets/stickers/emoticons/stickers/imgly_sticker_emoticons_impatient.svg

<svg height="58" viewBox="0 0 62 58" width="62" xmlns="http://www.w3.org/2000/svg"><g fill="none"><path d="m61.3 34.5c0 13-11.9 23.5-30.3 23.5s-30.3-10.5-30.3-23.5 11.9-32.5 30.3-32.5 30.3 19.5 30.3 32.5z" fill="#f7910b"/><path d="m61.3 34.5c0 13-11.9 19.5-30.3 19.5s-30.3-6.5-30.3-19.5 11.9-34.5 30.3-34.5 30.3 21.5 30.3 34.5z" fill="#f7910b"/><path d="m31 0c18.4 0 30.3 21.5 30.3 34.5s-11.9 19.5-30.3 19.5" fill="#f9a908"/><path d="m61.3 34.5c0 13-11.9 19.5-30.3 19.5s-30.3-6.5-30.3-19.5 11.9-32.5 30.3-32.5 30.3 19.5 30.3 32.5z" fill="#f9a908"/><path d="m.7 34.5c0-13 11.9-32.5 30.3-32.5" fill="#f9c55d"/><path d="m31 2c18.4 0 30.3 19.5 30.3 32.5s-11.9 23.5-30.3 23.5" fill="#f7910b"/><path d="m31 2c18.4 0 30.3 19.5 30.3 32.5" fill="#ea7103"/><circle cx="9.3" cy="31.5" fill="#f7910b" r="1"/><circle cx="4.8" cy="33.5" fill="#f7910b" r="1.1"/><circle cx="7.8" cy="29.5" fill="#f7910b" r="1"/><circle cx="12.4" cy="31.3" fill="#f7910b" r="1"/><circle cx="51.6" cy="31.8" fill="#f9a908" r="1"/><circle cx="54.1" cy="33.2" fill="#f9a908" r="1"/><circle cx="48.8" cy="24.4" fill="#f9a908" r="1"/><circle cx="48.3" cy="36" fill="#f9a908" r="1.3"/><circle cx="55.5" cy="36.1" fill="#f9a908" r="1"/><circle cx="8.3" cy="35.5" fill="#f7910b" r="1"/><circle cx="9.1" cy="27.1" fill="#f7910b" r="1"/><g fill="#f9a908"><circle cx="3.8" cy="13.3" r="1.1"/><circle cx="7" cy="9.8" r="1"/><circle cx="58.2" cy="15.7" r="1"/><circle cx="57.4" cy="12.8" r="1"/><circle cx="60" cy="13.3" r="1"/><circle cx="5" cy="16.3" r="1"/></g><path d="m38.4 44.7c0 2.6-3.3 7.2-7.4 7.2s-7.4-4.6-7.4-7.2" fill="#f7910b"/><g transform="translate(15 11)"><circle cx="4.6" cy="7.3" fill="#d87703" r="3.5"/><path d="m30.9 7.3c0 1.9-1.6 3.5-3.5 3.5s-3.5-1.6-3.5-3.5 1.6-3.5 3.5-3.5c2 0 3.5 1.6 3.5 3.5z" fill="#d87703"/><circle cx="4.6" cy="6.3" fill="#1e4784" r="3.5"/><path d="m4.6 2.8c1.9 0 3.5 1.6 3.5 3.5s-1.6 3.5-3.5 3.5" fill="#00233f"/><path d="m30.9 6.3c0 1.9-1.6 3.5-3.5 3.5s-3.5-1.6-3.5-3.5 1.6-3.5 3.5-3.5c2 0 3.5 1.6 3.5 3.5z" fill="#1e4784"/><path d="m27.4 2.8c1.9 0 3.5 1.6 3.5 3.5s-1.6 3.5-3.5 3.5" fill="#00233f"/><path d="m.5 5.6c0-2.3 1.8-5.1 4.1-5.1s4.1 2.8 4.1 5.1" fill="#f9a908"/><path d="m23.3 5.6c0-2.3 1.8-5.1 4.1-5.1s4.1 2.8 4.1 5.1" fill="#f7910b"/></g><g transform="translate(11 20)"><path d="m15.8 3.1c0 1.2-3.5.7-7.8.7s-7.8.6-7.8-.7 3.5-2.2 7.8-2.2 7.8 1 7.8 2.2z" fill="#f9c55d"/><path d="m39.8 3.1c0 1.2-3.5.7-7.8.7s-7.8.6-7.8-.7 3.5-2.2 7.8-2.2 7.8 1 7.8 2.2z" fill="#f9a908"/></g><g fill="#19bca4" transform="translate(15 11)"><path d="m10.2 2.5c0 1.1-2.3.5-5.1.4s-5.1.4-5.1-.7 2.3-2 5.1-1.9c2.9.1 5.2 1.1 5.1 2.2z"/><path d="m21.8 2.5c0 1.1 2.3.5 5.1.4s5.1.4 5.1-.7-2.3-2-5.1-1.9c-2.9.1-5.2 1.1-5.1 2.2z"/></g><path d="m33 45h-4c-.6 0-1-.4-1-1s.4-1 1-1h4c.6 0 1 .4 1 1s-.4 1-1 1z" fill="#02243e"/></g></svg>

<?xml version="1.0" encoding="UTF-8"?>
<svg width="62px" height="58px" viewBox="0 0 62 58" version="1.1" xmlns="http://www.w3.org/2000/svg" xmlns:xlink="http://www.w3.org/1999/xlink">
    <!-- Generator: Sketch 43.1 (39012) - http://www.bohemiancoding.com/sketch -->
    <title>imgly_sticker_emoticons_impatient</title>
    <desc>Created with Sketch.</desc>
    <defs></defs>
    <g id="Page-1" stroke="none" stroke-width="1" fill="none" fill-rule="evenodd">
        <g id="impatient" fill-rule="nonzero">
            <g id="Group">
                <path d="M61.3,34.5 C61.3,47.5 49.4,58 31,58 C12.6,58 0.7,47.5 0.7,34.5 C0.7,21.5 12.6,2 31,2 C49.4,2 61.3,21.5 61.3,34.5 Z" id="Shape" fill="#F7910B"></path>
                <path d="M61.3,34.5 C61.3,47.5 49.4,54 31,54 C12.6,54 0.7,47.5 0.7,34.5 C0.7,21.5 12.6,0 31,0 C49.4,0 61.3,21.5 61.3,34.5 Z" id="Shape" fill="#F7910B"></path>
                <path d="M31,0 C49.4,0 61.3,21.5 61.3,34.5 C61.3,47.5 49.4,54 31,54" id="Shape" fill="#F9A908"></path>
                <path d="M61.3,34.5 C61.3,47.5 49.4,54 31,54 C12.6,54 0.7,47.5 0.7,34.5 C0.7,21.5 12.6,2 31,2 C49.4,2 61.3,21.5 61.3,34.5 Z" id="Shape" fill="#F9A908"></path>
                <path d="M0.7,34.5 C0.7,21.5 12.6,2 31,2" id="Shape" fill="#F9C55D"></path>
                <path d="M31,2 C49.4,2 61.3,21.5 61.3,34.5 C61.3,47.5 49.4,58 31,58" id="Shape" fill="#F7910B"></path>
                <path d="M31,2 C49.4,2 61.3,21.5 61.3,34.5" id="Shape" fill="#EA7103"></path>
                <circle id="Oval" fill="#F7910B" cx="9.3" cy="31.5" r="1"></circle>
                <circle id="Oval" fill="#F7910B" cx="4.8" cy="33.5" r="1.1"></circle>
                <circle id="Oval" fill="#F7910B" cx="7.8" cy="29.5" r="1"></circle>
                <circle id="Oval" fill="#F7910B" cx="12.4" cy="31.3" r="1"></circle>
                <circle id="Oval" fill="#F9A908" cx="51.6" cy="31.8" r="1"></circle>
                <circle id="Oval" fill="#F9A908" cx="54.1" cy="33.2" r="1"></circle>
                <circle id="Oval" fill="#F9A908" cx="48.8" cy="24.4" r="1"></circle>
                <circle id="Oval" fill="#F9A908" cx="48.3" cy="36" r="1.3"></circle>
                <circle id="Oval" fill="#F9A908" cx="55.5" cy="36.1" r="1"></circle>
                <circle id="Oval" fill="#F7910B" cx="8.3" cy="35.5" r="1"></circle>
                <circle id="Oval" fill="#F7910B" cx="9.1" cy="27.1" r="1"></circle>
                <circle id="Oval" fill="#F9A908" cx="3.8" cy="13.3" r="1.1"></circle>
                <circle id="Oval" fill="#F9A908" cx="7" cy="9.8" r="1"></circle>
                <circle id="Oval" fill="#F9A908" cx="58.2" cy="15.7" r="1"></circle>
                <circle id="Oval" fill="#F9A908" cx="57.4" cy="12.8" r="1"></circle>
                <circle id="Oval" fill="#F9A908" cx="60" cy="13.3" r="1"></circle>
                <circle id="Oval" fill="#F9A908" cx="5" cy="16.3" r="1"></circle>
                <path d="M38.4,44.7 C38.4,47.3 35.1,51.9 31,51.9 C26.9,51.9 23.6,47.3 23.6,44.7" id="Shape" fill="#F7910B"></path>
                <g transform="translate(15.000000, 11.000000)">
                    <circle id="Oval" fill="#D87703" cx="4.6" cy="7.3" r="3.5"></circle>
                    <path d="M30.9,7.3 C30.9,9.2 29.3,10.8 27.4,10.8 C25.5,10.8 23.9,9.2 23.9,7.3 C23.9,5.4 25.5,3.8 27.4,3.8 C29.4,3.8 30.9,5.4 30.9,7.3 Z" id="Shape" fill="#D87703"></path>
                    <circle id="Oval" fill="#1E4784" cx="4.6" cy="6.3" r="3.5"></circle>
                    <path d="M4.6,2.8 C6.5,2.8 8.1,4.4 8.1,6.3 C8.1,8.2 6.5,9.8 4.6,9.8" id="Shape" fill="#00233F"></path>
                    <path d="M30.9,6.3 C30.9,8.2 29.3,9.8 27.4,9.8 C25.5,9.8 23.9,8.2 23.9,6.3 C23.9,4.4 25.5,2.8 27.4,2.8 C29.4,2.8 30.9,4.4 30.9,6.3 Z" id="Shape" fill="#1E4784"></path>
                    <path d="M27.4,2.8 C29.3,2.8 30.9,4.4 30.9,6.3 C30.9,8.2 29.3,9.8 27.4,9.8" id="Shape" fill="#00233F"></path>
                    <path d="M0.5,5.6 C0.5,3.3 2.3,0.5 4.6,0.5 C6.9,0.5 8.7,3.3 8.7,5.6" id="Shape" fill="#F9A908"></path>
                    <path d="M23.3,5.6 C23.3,3.3 25.1,0.5 27.4,0.5 C29.7,0.5 31.5,3.3 31.5,5.6" id="Shape" fill="#F7910B"></path>
                </g>
                <g transform="translate(11.000000, 20.000000)" id="Shape">
                    <path d="M15.8,3.1 C15.8,4.3 12.3,3.8 8,3.8 C3.7,3.8 0.2,4.4 0.2,3.1 C0.2,1.8 3.7,0.9 8,0.9 C12.3,0.9 15.8,1.9 15.8,3.1 Z" fill="#F9C55D"></path>
                    <path d="M39.8,3.1 C39.8,4.3 36.3,3.8 32,3.8 C27.7,3.8 24.2,4.4 24.2,3.1 C24.2,1.8 27.7,0.9 32,0.9 C36.3,0.9 39.8,1.9 39.8,3.1 Z" fill="#F9A908"></path>
                </g>
                <g transform="translate(15.000000, 11.000000)" id="Shape" fill="#19BCA4">
                    <path d="M10.2,2.5 C10.2,3.6 7.9,3 5.1,2.9 C2.3,2.8 0,3.3 0,2.2 C0,1.1 2.3,0.2 5.1,0.3 C8,0.4 10.3,1.4 10.2,2.5 Z"></path>
                    <path d="M21.8,2.5 C21.8,3.6 24.1,3 26.9,2.9 C29.7,2.8 32,3.3 32,2.2 C32,1.1 29.7,0.2 26.9,0.3 C24,0.4 21.7,1.4 21.8,2.5 Z"></path>
                </g>
            </g>
            <path d="M33,45 L29,45 C28.4,45 28,44.6 28,44 C28,43.4 28.4,43 29,43 L33,43 C33.6,43 34,43.4 34,44 C34,44.6 33.6,45 33,45 Z" id="Shape" fill="#02243E"></path>
        </g>
    </g>
</svg>
